X: 11311
T: Eagle's Whistle, The
R: waltz
M: 3/4
K: Gmajor
|:ed|B2 dB AG|B2 dB AG|B2 AA Bd|B2 AA GA|
B2 dB AG|B2 dB Ad|A2 GG Bd|A2 GG Bd|
g2 ed Bd|g2 ed BG|B2 AA Bd|B2 A2 (3Bcd|
gd ed (3Bcd|g2 ed BD|A2 G2 Bd|AG G2:|

